src/assets/Day1Selected.svg

<svg width="94" height="79" viewBox="0 0 94 79" fill="none" xmlns="http://www.w3.org/2000/svg">
<path d="M19.6199 30.3479H89.9003C91.4621 30.3479 92.6334 29.8497 93.4143 29.1025C94.1952 28.3553 94.1952 27.359 93.4143 26.6117L82.8723 15.4032L93.4143 4.19467C93.8048 3.44744 93.8048 2.45112 93.4143 1.70389C92.6334 0.956653 91.4621 0.458496 89.9003 0.458496H19.6199C18.4486 0.458496 17.2773 0.707574 16.4964 1.45481L0.878502 13.9087C-0.292831 14.905 -0.292831 16.1504 0.878502 16.8977L16.4964 29.3516C17.2773 30.0988 18.4486 30.3479 19.6199 30.3479ZM82.8723 25.3663H21.1817L8.68744 15.4032L21.1817 5.44006H82.8723L74.6729 14.1578C73.892 14.905 73.892 15.9014 74.6729 16.6486L82.8723 25.3663Z" fill="#323232"/>
<path d="M82.8723 25.3663H21.1817L8.68744 15.4032L21.1817 5.44006H82.8723L74.6729 14.1578C73.892 14.905 73.892 15.9014 74.6729 16.6486L82.8723 25.3663Z" fill="#323232"/>
<path d="M48.343 78.6114H41.3255C39.922 78.6114 38.9863 77.1458 38.9863 74.9474V30.9797C38.9863 28.7813 39.922 27.3157 41.3255 27.3157H48.343C49.7465 27.3157 50.6822 28.7813 50.6822 30.9797V74.9474C50.6822 77.1458 49.7465 78.6114 48.343 78.6114ZM43.6647 71.2834H46.0038V34.6436H43.6647V71.2834Z" fill="#323232"/>
<path d="M43.6647 71.2834H46.0038V34.6436H43.6647V71.2834Z" fill="#323232"/>
<path d="M29.1981 20.1946V10.3946H32.3761C33.5241 10.3946 34.4668 10.5952 35.2041 10.9966C35.9508 11.3979 36.5014 11.9672 36.8561 12.7046C37.2201 13.4326 37.4021 14.3006 37.4021 15.3086C37.4021 16.3072 37.2201 17.1752 36.8561 17.9126C36.5014 18.6406 35.9508 19.2052 35.2041 19.6066C34.4668 19.9986 33.5241 20.1946 32.3761 20.1946H29.1981ZM30.6821 18.9346H32.3201C33.2068 18.9346 33.9068 18.7899 34.4201 18.5006C34.9428 18.2112 35.3161 17.7959 35.5401 17.2546C35.7734 16.7132 35.8901 16.0646 35.8901 15.3086C35.8901 14.5526 35.7734 13.8992 35.5401 13.3486C35.3161 12.7979 34.9428 12.3779 34.4201 12.0886C33.9068 11.7899 33.2068 11.6406 32.3201 11.6406H30.6821V18.9346ZM41.3379 20.3626C40.7499 20.3626 40.2645 20.2646 39.8819 20.0686C39.4992 19.8726 39.2145 19.6159 39.0279 19.2986C38.8412 18.9719 38.7479 18.6172 38.7479 18.2346C38.7479 17.5626 39.0092 17.0306 39.5319 16.6386C40.0545 16.2466 40.8012 16.0506 41.7719 16.0506H43.5919V15.9246C43.5919 15.3832 43.4425 14.9772 43.1439 14.7066C42.8545 14.4359 42.4765 14.3006 42.0099 14.3006C41.5992 14.3006 41.2399 14.4032 40.9319 14.6086C40.6332 14.8046 40.4512 15.0986 40.3859 15.4906H38.9019C38.9485 14.9866 39.1165 14.5572 39.4059 14.2026C39.7045 13.8386 40.0779 13.5632 40.5259 13.3766C40.9832 13.1806 41.4825 13.0826 42.0239 13.0826C42.9945 13.0826 43.7459 13.3392 44.2779 13.8526C44.8099 14.3566 45.0759 15.0472 45.0759 15.9246V20.1946H43.7879L43.6619 19.0046C43.4659 19.3872 43.1812 19.7092 42.8079 19.9706C42.4345 20.2319 41.9445 20.3626 41.3379 20.3626ZM41.6319 19.1586C42.0332 19.1586 42.3692 19.0652 42.6399 18.8786C42.9199 18.6826 43.1345 18.4259 43.2839 18.1086C43.4425 17.7912 43.5405 17.4412 43.5779 17.0586H41.9259C41.3379 17.0586 40.9179 17.1612 40.6659 17.3666C40.4232 17.5719 40.3019 17.8286 40.3019 18.1366C40.3019 18.4539 40.4185 18.7059 40.6519 18.8926C40.8945 19.0699 41.2212 19.1586 41.6319 19.1586ZM47.3994 23.2746L49.0654 19.6206H48.6594L45.9154 13.2506H47.5254L49.6534 18.3886L51.8794 13.2506H53.4474L48.9674 23.2746H47.3994ZM59.2588 20.1946V12.0746L57.6768 12.4386V11.3466L59.8468 10.3946H60.7988V20.1946H59.2588Z" fill="white"/>
</svg>

<?xml version="1.0" encoding="utf-8"?>
<!-- Generator: Adobe Illustrator 27.9.4, SVG Export Plug-In . SVG Version: 9.03 Build 54784)  -->
<svg version="1.1" id="Layer_1" xmlns="http://www.w3.org/2000/svg" xmlns:xlink="http://www.w3.org/1999/xlink" x="0px" y="0px"
	 viewBox="0 0 94 79" style="enable-background:new 0 0 94 79;" xml:space="preserve">
<style type="text/css">
	.st0{fill:#323232;}
	.st1{fill:#FFFFFF;}
</style>
<path class="st0" d="M93.41,26.61L82.87,15.4L93.41,4.19c0.39-0.75,0.39-1.74,0-2.49c-0.78-0.75-1.95-1.25-3.51-1.25H19.62
	c-1.17,0-2.34,0.25-3.12,1L0.88,13.91c-1.17,1-1.17,2.24,0,2.99L16.5,29.35c0.78,0.75,1.95,1,3.12,1H89.9c1.56,0,2.73-0.5,3.51-1.25
	C94.19,28.35,94.19,27.36,93.41,26.61z"/>
<path class="st0" d="M48.35,27.32h-7.02c-1.4,0-2.34,1.46-2.34,3.66v43.97h11.7V30.98C50.69,28.79,49.75,27.32,48.35,27.32z"/>
<path class="st1" d="M29.2,20.19v-9.8h3.18c1.15,0,2.09,0.2,2.83,0.6c0.75,0.4,1.3,0.97,1.65,1.71c0.36,0.73,0.55,1.6,0.55,2.6
	s-0.18,1.87-0.55,2.6c-0.35,0.73-0.91,1.29-1.65,1.69c-0.74,0.39-1.68,0.59-2.83,0.59L29.2,20.19L29.2,20.19z M30.68,18.93h1.64
	c0.89,0,1.59-0.14,2.1-0.43c0.52-0.29,0.9-0.7,1.12-1.25c0.23-0.54,0.35-1.19,0.35-1.95c0-0.76-0.12-1.41-0.35-1.96
	c-0.22-0.55-0.6-0.97-1.12-1.26c-0.51-0.3-1.21-0.45-2.1-0.45h-1.64V18.93z M41.34,20.36c-0.59,0-1.07-0.1-1.46-0.29
	c-0.38-0.2-0.67-0.45-0.85-0.77c-0.19-0.33-0.28-0.68-0.28-1.06c0-0.67,0.26-1.2,0.78-1.6c0.52-0.39,1.27-0.59,2.24-0.59h1.82v-0.13
	c0-0.54-0.15-0.95-0.45-1.22c-0.29-0.27-0.67-0.41-1.13-0.41c-0.41,0-0.77,0.1-1.08,0.31c-0.3,0.2-0.48,0.49-0.55,0.88H38.9
	c0.05-0.5,0.21-0.93,0.5-1.29c0.3-0.36,0.67-0.64,1.12-0.83c0.46-0.2,0.96-0.29,1.5-0.29c0.97,0,1.72,0.26,2.25,0.77
	c0.53,0.5,0.8,1.19,0.8,2.07v4.27h-1.29L43.66,19c-0.2,0.38-0.48,0.7-0.85,0.97C42.43,20.23,41.94,20.36,41.34,20.36z M41.63,19.16
	c0.4,0,0.74-0.09,1.01-0.28c0.28-0.2,0.49-0.45,0.64-0.77c0.16-0.32,0.26-0.67,0.29-1.05h-1.65c-0.59,0-1.01,0.1-1.26,0.31
	c-0.24,0.21-0.36,0.46-0.36,0.77c0,0.32,0.12,0.57,0.35,0.76C40.89,19.07,41.22,19.16,41.63,19.16z M47.4,23.27l1.67-3.65h-0.41
	l-2.74-6.37h1.61l2.13,5.14l2.23-5.14h1.57l-4.48,10.02C48.98,23.27,47.4,23.27,47.4,23.27z M59.26,20.19v-8.12l-1.58,0.36v-1.09
	l2.17-0.95h0.95v9.8H59.26z"/>
</svg>
